X:25
T:Lâ€™Ecossoise. JBi.25
M:C
L:1/8
Q:1/4=110
S:James Biggins MS, Leeds, 1779.
R:.Misc.
O:England
A:Yorkshire
Z:vmp.Nick Barber & Chris Partington
K:C
gf/e/ dc .d(cAG)|c/d/e d/e/fTe2d2|!
gf/e/ dc .d(cAG)|c/d/e/f/ gf Ted/e/c2:|!
|:ce2d cg2B|cB/c/ Ad TBA/B/G2|!
ce2d cg2f|ed/e/ f/e/d/e/c2c2:|

